X: 17954
T: Howyee Martins
R: reel
M: 4/4
K: Edorian
|:~E3E GEGA|Beed efge|a2ge eded|edBA GdGF|
~E3E GEGA|Beed efge|afge edec|dBAF GEED:|
|:~e3e gega|abba geed|d~e3 gega|geed BAGE|
~e3e gega|bgag geed|b2af g2ec|dBAF GEED:|

